X: 3
T: The Flowers Of The Forest
R: waltz
M: 3/4
L: 1/8
K: Dmaj
A6|A4B2|A4Bd|d6|g4f2|e4d2|Bd-d4|B6|
A6|A4B2|A4Bd|d4e/f/g|f6|e4d2|d6-|d6|
=c6|=c4d2|BA-A4|A4A2|A4f2|e4d2|Bd-d4|B4-BA|
A3|A4-AB|A4Bd|d4e/f/g|f6|e4d2|d6-|d6||

